app/images/mm-secure.svg

<svg fill="none" height="22" viewBox="0 0 78 22" width="78" xmlns="http://www.w3.org/2000/svg"><path d="m29.5488 2.89062 1.8262 5.15626 1.8164-5.15626h1.9238v7.10938h-1.4697v-1.94336l.1465-3.35449-1.919 5.29785h-1.0058l-1.9141-5.29297.1465 3.34961v1.94336h-1.4648v-7.10938zm9.1846 7.20708c-.7747 0-1.4063-.23767-1.8945-.71293-.4851-.47526-.7276-1.1084-.7276-1.89942v-.13672c0-.5306.1026-1.00423.3076-1.4209.2051-.41992.4948-.74218.8692-.96679.3776-.22787.8073-.3418 1.289-.3418.7227 0 1.2907.22787 1.7041.68359.4167.45573.625 1.10189.625 1.93848v.57617h-3.3642c.0456.34505.1823.62175.4101.83008.2312.20833.5225.3125.8741.3125.5436 0 .9684-.19694 1.2744-.59082l.6933.77637c-.2115.29948-.498.53385-.8593.70312-.3614.16597-.7617.24907-1.2012.24907zm-.1611-4.33598c-.28 0-.5078.0944-.6836.2832-.1726.1888-.2832.45899-.3321.81055h1.9629v-.11231c-.0065-.3125-.0911-.55338-.2539-.72265-.1627-.17253-.3939-.25879-.6933-.25879zm4.8291-2.34375v1.29883h.9033v1.03515h-.9033v2.63672c0 .19531.0374.33529.1123.41992.0748.08464.2181.12696.4297.12696.1562 0 .2946-.0114.415-.03418v1.06933c-.2767.0846-.5615.127-.8545.127-.9896 0-1.4941-.49972-1.5137-1.49907v-2.84668h-.7714v-1.03515h.7714v-1.29883zm4.7509 6.58203c-.0651-.12695-.1123-.28483-.1416-.47363-.3418.38086-.7861.57133-1.333.57133-.5175 0-.9472-.14978-1.289-.44926-.3386-.29948-.5078-.67709-.5078-1.13282 0-.55989.2067-.98958.6201-1.28906.4166-.29948 1.0172-.45084 1.8017-.4541h.6494v-.30273c0-.24414-.0634-.43946-.1904-.58594-.1237-.14649-.3206-.21973-.5908-.21973-.2376 0-.4248.05697-.5615.1709-.1335.11393-.2002.27018-.2002.46875h-1.4112c0-.30599.0944-.58919.2832-.84961.1889-.26042.4558-.46387.8008-.61035.3451-.14974.7325-.22461 1.1621-.22461.6511 0 1.167.16439 1.5479.49316.3841.32553.5762.78451.5762 1.37696v2.29004c.0032.5013.0732.88053.2099 1.13769v.08301zm-1.1669-.98145c.2083 0 .4003-.04557.5761-.13671.1758-.09441.306-.21973.3906-.37598v-.9082h-.5273c-.7064 0-1.0824.24414-1.1279.73242l-.0049.08301c0 .17578.0618.32063.1855.43457.1237.11393.293.17089.5079.17089zm5.4736-6.12793 1.8262 5.15626 1.8164-5.15626h1.9238v7.10938h-1.4697v-1.94336l.1464-3.35449-1.9189 5.29785h-1.0059l-1.914-5.29297.1465 3.34961v1.94336h-1.4649v-7.10938zm9.8144 7.10938c-.0651-.12695-.1123-.28483-.1416-.47363-.3418.38086-.7861.57133-1.333.57133-.5176 0-.9472-.14978-1.289-.44926-.3386-.29948-.5078-.67709-.5078-1.13282 0-.55989.2067-.98958.6201-1.28906.4166-.29948 1.0172-.45084 1.8017-.4541h.6494v-.30273c0-.24414-.0634-.43946-.1904-.58594-.1237-.14649-.3206-.21973-.5908-.21973-.2376 0-.4248.05697-.5615.1709-.1335.11393-.2002.27018-.2002.46875h-1.4112c0-.30599.0944-.58919.2832-.84961s.4558-.46387.8008-.61035c.3451-.14974.7324-.22461 1.1621-.22461.6511 0 1.167.16439 1.5479.49316.3841.32553.5762.78451.5762 1.37696v2.29004c.0032.5013.0732.88053.2099 1.13769v.08301zm-1.167-.98145c.2084 0 .4004-.04557.5762-.13671.1758-.09441.306-.21973.3906-.37598v-.9082h-.5273c-.7064 0-1.0824.24414-1.1279.73242l-.0049.08301c0 .17578.0618.32063.1855.43457.1237.11393.293.17089.5078.17089zm6.3282-.47851c0-.17253-.0863-.30762-.2588-.40527-.1693-.10092-.4427-.19043-.8203-.26856-1.2565-.26367-1.8848-.79753-1.8848-1.60156 0-.46875.1937-.85938.5811-1.17188.3906-.31575.9-.47363 1.5283-.47363.6706 0 1.206.15788 1.6064.47363.4037.31576.6055.72591.6055 1.23047h-1.4111c0-.20182-.0651-.36784-.1954-.49804-.1302-.13347-.3336-.2002-.6103-.2002-.2376 0-.4216.05371-.5518.16113s-.1953.24414-.1953.41016c0 .15625.0733.2832.2198.38086.1497.0944.4003.17741.7519.24902.3516.06836.6478.14649.8887.23438.7454.27343 1.1181.74707 1.1181 1.4209 0 .48177-.2067.87239-.6201 1.17187-.4134.29622-.9472.44438-1.6015.44438-.4427 0-.8366-.0782-1.1817-.23442-.3418-.1595-.6103-.37598-.8056-.64941-.1954-.2767-.293-.57455-.293-.89356h1.3379c.013.25065.1058.44271.2783.57617.1725.13347.4036.2002.6934.2002.2701 0 .4736-.05046.6103-.15137.14-.10416.21-.23926.21-.40527zm4.2041-.65918-.5078.50781v1.61133h-1.4112v-7.5h1.4112v4.15527l.2734-.35156 1.3525-1.58691h1.6944l-1.9092 2.20215 2.0752 3.08105h-1.6211zm-40.3174 10.25394c0-.2767-.0977-.4883-.293-.6348-.1953-.1497-.5469-.306-1.0547-.4688-.5078-.166-.9098-.3287-1.206-.4882-.8073-.4362-1.211-1.0238-1.211-1.7627 0-.3841.1075-.7259.3223-1.0254.2181-.3028.529-.5388.9326-.708.4069-.1693.8627-.2539 1.3672-.2539.5078 0 .9603.0927 1.3574.2783.3972.1823.7048.4411.9229.7764.2213.3352.332.7161.332 1.1425h-1.4648c0-.3255-.1026-.5778-.3076-.7568-.2051-.1823-.4932-.2734-.8643-.2734-.3581 0-.6364.0765-.835.2295-.1985.1497-.2978.3483-.2978.5957 0 .2311.1155.4248.3467.581.2343.1563.5778.3027 1.0302.4395.8334.2506 1.4405.5615 1.8213.9326.3809.3711.5713.8333.5713 1.3867 0 .6152-.2327 1.0986-.6982 1.4502-.4655.3483-1.0921.5225-1.8799.5225-.5469 0-1.0449-.0993-1.4941-.2979-.4493-.2018-.7927-.4769-1.0303-.8252-.2344-.3483-.3516-.7519-.3516-1.2109h1.4697c0 .7845.4688 1.1767 1.4063 1.1767.3483 0 .6201-.07.8154-.2099.1953-.1433.293-.3418.293-.5957zm4.8047 1.9629c-.7748 0-1.4063-.2377-1.8946-.7129-.485-.4753-.7275-1.1084-.7275-1.8994v-.1368c0-.5306.1025-1.0042.3076-1.4209.2051-.4199.4948-.7422.8692-.9668.3776-.2278.8073-.3418 1.289-.3418.7227 0 1.2907.2279 1.7041.6836.4167.4558.625 1.1019.625 1.9385v.5762h-3.3642c.0455.345.1823.6217.4101.8301.2311.2083.5225.3125.8741.3125.5436 0 .9684-.197 1.2744-.5909l.6933.7764c-.2116.2995-.498.5339-.8594.7031-.3613.166-.7617.2491-1.2011.2491zm-.1612-4.336c-.2799 0-.5078.0944-.6836.2832-.1725.1888-.2832.459-.332.8106h1.9629v-.1123c-.0065-.3125-.0911-.5534-.2539-.7227-.1628-.1725-.3939-.2588-.6934-.2588zm5.337 3.1983c.2604 0 .472-.0717.6347-.2149.1628-.1432.2474-.3336.2539-.5713h1.3233c-.0033.3581-.1009.6869-.293.9864-.1921.2962-.4557.5273-.791.6933-.332.1628-.6999.2442-1.1035.2442-.7552 0-1.3509-.2393-1.7871-.7178-.4362-.4818-.6543-1.1459-.6543-1.9922v-.0928c0-.8138.2164-1.4632.6494-1.9482.4329-.485 1.027-.7276 1.7822-.7276.6608 0 1.1898.1888 1.5869.5664.4004.3744.6039.8741.6104 1.4991h-1.3233c-.0065-.2735-.0911-.4948-.2539-.6641-.1627-.1725-.3776-.2588-.6445-.2588-.3288 0-.5778.1205-.7471.3613-.166.2377-.249.625-.249 1.1622v.1464c0 .5437.083.9343.249 1.1719s.4183.3565.7569.3565zm6.1816.5029c-.3483.4232-.8301.6348-1.4453.6348-.5664 0-.9994-.1628-1.2988-.4883-.2963-.3255-.4476-.8024-.4541-1.4307v-3.4619h1.4111v3.4131c0 .5501.2506.8252.7519.8252.4786 0 .8073-.166.9864-.4981v-3.7402h1.416v5.2832h-1.3281zm5.4004-3.4229c-.1921-.026-.3613-.039-.5078-.039-.5339 0-.8838.1806-1.0498.542v3.457h-1.4112v-5.2832h1.333l.0391.6299c.2832-.485.6755-.7276 1.1768-.7276.1562 0 .3027.0212.4394.0635zm3.0176 4.0577c-.7748 0-1.4063-.2377-1.8946-.7129-.485-.4753-.7275-1.1084-.7275-1.8994v-.1368c0-.5306.1025-1.0042.3076-1.4209.2051-.4199.4948-.7422.8692-.9668.3776-.2278.8072-.3418 1.289-.3418.7227 0 1.2907.2279 1.7041.6836.4167.4558.625 1.1019.625 1.9385v.5762h-3.3642c.0455.345.1823.6217.4101.8301.2311.2083.5225.3125.874.3125.5437 0 .9685-.197 1.2745-.5909l.6933.7764c-.2116.2995-.498.5339-.8594.7031-.3613.166-.7617.2491-1.2011.2491zm-.1612-4.336c-.2799 0-.5078.0944-.6836.2832-.1725.1888-.2832.459-.332.8106h1.9629v-.1123c-.0065-.3125-.0911-.5534-.2539-.7227-.1628-.1725-.3939-.2588-.6934-.2588z" fill="#a2a4ac"/><g clip-rule="evenodd" fill-rule="evenodd"><path d="m0 2.65498v6.04369c0 6.22653 4.19995 11.49943 10 13.30133 5.7999-1.8019 10-7.0748 10-13.30133v-6.04369l-10-2.65498z" fill="#a2a4ac"/><path d="m8.47027 11.6-1.08565.493 1.53846.4499zm2.75013 0-.4512.9429 1.5385-.4499zm-.7762 2.2h-1.20048l-.20802.1633-.11262 1.0938.10397-.1087h1.63385l.1083.1087-.117-1.0938zm5.1792-3.93747-.2354-.16756.3766-.33962-.2872-.22343.3767-.28376-.2495-.18614.3954-1.89854-.5932-1.76348-3.818 1.40985h-3.17765l-3.81802-1.40985-.59313 1.76348.40012 1.89854-.25422.18614.37663.28376-.28717.22343.37664.33962-.23544.16756.54139.62817-.81909 2.522.75796 2.5732 2.66925-.7259.51784.4188 1.05453.7212h1.80306l1.0546-.7212.5178-.4188 2.6693.7259.7626-2.5732-.8238-2.522z" fill="#fff"/></g></svg>

<?xml version="1.0" encoding="utf-8"?>
<!DOCTYPE svg PUBLIC "-//W3C//DTD SVG 1.1//EN" "http://www.w3.org/Graphics/SVG/1.1/DTD/svg11.dtd">
<svg width="78" height="22" viewBox="0 0 78 22" fill="none" xmlns="http://www.w3.org/2000/svg">
  <path d="M29.5488 2.89062L31.375 8.04688L33.1914 2.89062H35.1152V10H33.6455V8.05664L33.792 4.70215L31.873 10H30.8672L28.9531 4.70703L29.0996 8.05664V10H27.6348V2.89062H29.5488ZM38.7334 10.0977C37.9587 10.0977 37.3271 9.86003 36.8389 9.38477C36.3538 8.90951 36.1113 8.27637 36.1113 7.48535V7.34863C36.1113 6.81803 36.2139 6.3444 36.4189 5.92773C36.624 5.50781 36.9137 5.18555 37.2881 4.96094C37.6657 4.73307 38.0954 4.61914 38.5771 4.61914C39.2998 4.61914 39.8678 4.84701 40.2812 5.30273C40.6979 5.75846 40.9062 6.40462 40.9062 7.24121V7.81738H37.542C37.5876 8.16243 37.7243 8.43913 37.9521 8.64746C38.1833 8.85579 38.4746 8.95996 38.8262 8.95996C39.3698 8.95996 39.7946 8.76302 40.1006 8.36914L40.7939 9.14551C40.5824 9.44499 40.2959 9.67936 39.9346 9.84863C39.5732 10.0146 39.1729 10.0977 38.7334 10.0977ZM38.5723 5.76172C38.2923 5.76172 38.0645 5.85612 37.8887 6.04492C37.7161 6.23372 37.6055 6.50391 37.5566 6.85547H39.5195V6.74316C39.513 6.43066 39.4284 6.18978 39.2656 6.02051C39.1029 5.84798 38.8717 5.76172 38.5723 5.76172ZM43.4014 3.41797V4.7168H44.3047V5.75195H43.4014V8.38867C43.4014 8.58398 43.4388 8.72396 43.5137 8.80859C43.5885 8.89323 43.7318 8.93555 43.9434 8.93555C44.0996 8.93555 44.238 8.92415 44.3584 8.90137V9.9707C44.0817 10.0553 43.7969 10.0977 43.5039 10.0977C42.5143 10.0977 42.0098 9.59798 41.9902 8.59863V5.75195H41.2188V4.7168H41.9902V3.41797H43.4014ZM48.1523 10C48.0872 9.87305 48.04 9.71517 48.0107 9.52637C47.6689 9.90723 47.2246 10.0977 46.6777 10.0977C46.1602 10.0977 45.7305 9.94792 45.3887 9.64844C45.0501 9.34896 44.8809 8.97135 44.8809 8.51562C44.8809 7.95573 45.0876 7.52604 45.501 7.22656C45.9176 6.92708 46.5182 6.77572 47.3027 6.77246H47.9521V6.46973C47.9521 6.22559 47.8887 6.03027 47.7617 5.88379C47.638 5.7373 47.4411 5.66406 47.1709 5.66406C46.9333 5.66406 46.7461 5.72103 46.6094 5.83496C46.4759 5.94889 46.4092 6.10514 46.4092 6.30371H44.998C44.998 5.99772 45.0924 5.71452 45.2812 5.4541C45.4701 5.19368 45.737 4.99023 46.082 4.84375C46.4271 4.69401 46.8145 4.61914 47.2441 4.61914C47.8952 4.61914 48.4111 4.78353 48.792 5.1123C49.1761 5.43783 49.3682 5.89681 49.3682 6.48926V8.7793C49.3714 9.2806 49.4414 9.65983 49.5781 9.91699V10H48.1523ZM46.9854 9.01855C47.1937 9.01855 47.3857 8.97298 47.5615 8.88184C47.7373 8.78743 47.8675 8.66211 47.9521 8.50586V7.59766H47.4248C46.7184 7.59766 46.3424 7.8418 46.2969 8.33008L46.292 8.41309C46.292 8.58887 46.3538 8.73372 46.4775 8.84766C46.6012 8.96159 46.7705 9.01855 46.9854 9.01855ZM52.459 2.89062L54.2852 8.04688L56.1016 2.89062H58.0254V10H56.5557V8.05664L56.7021 4.70215L54.7832 10H53.7773L51.8633 4.70703L52.0098 8.05664V10H50.5449V2.89062H52.459ZM62.2734 10C62.2083 9.87305 62.1611 9.71517 62.1318 9.52637C61.79 9.90723 61.3457 10.0977 60.7988 10.0977C60.2812 10.0977 59.8516 9.94792 59.5098 9.64844C59.1712 9.34896 59.002 8.97135 59.002 8.51562C59.002 7.95573 59.2087 7.52604 59.6221 7.22656C60.0387 6.92708 60.6393 6.77572 61.4238 6.77246H62.0732V6.46973C62.0732 6.22559 62.0098 6.03027 61.8828 5.88379C61.7591 5.7373 61.5622 5.66406 61.292 5.66406C61.0544 5.66406 60.8672 5.72103 60.7305 5.83496C60.597 5.94889 60.5303 6.10514 60.5303 6.30371H59.1191C59.1191 5.99772 59.2135 5.71452 59.4023 5.4541C59.5911 5.19368 59.8581 4.99023 60.2031 4.84375C60.5482 4.69401 60.9355 4.61914 61.3652 4.61914C62.0163 4.61914 62.5322 4.78353 62.9131 5.1123C63.2972 5.43783 63.4893 5.89681 63.4893 6.48926V8.7793C63.4925 9.2806 63.5625 9.65983 63.6992 9.91699V10H62.2734ZM61.1064 9.01855C61.3148 9.01855 61.5068 8.97298 61.6826 8.88184C61.8584 8.78743 61.9886 8.66211 62.0732 8.50586V7.59766H61.5459C60.8395 7.59766 60.4635 7.8418 60.418 8.33008L60.4131 8.41309C60.4131 8.58887 60.4749 8.73372 60.5986 8.84766C60.7223 8.96159 60.8916 9.01855 61.1064 9.01855ZM67.4346 8.54004C67.4346 8.36751 67.3483 8.23242 67.1758 8.13477C67.0065 8.03385 66.7331 7.94434 66.3555 7.86621C65.099 7.60254 64.4707 7.06868 64.4707 6.26465C64.4707 5.7959 64.6644 5.40527 65.0518 5.09277C65.4424 4.77702 65.9518 4.61914 66.5801 4.61914C67.2507 4.61914 67.7861 4.77702 68.1865 5.09277C68.5902 5.40853 68.792 5.81868 68.792 6.32324H67.3809C67.3809 6.12142 67.3158 5.9554 67.1855 5.8252C67.0553 5.69173 66.8519 5.625 66.5752 5.625C66.3376 5.625 66.1536 5.67871 66.0234 5.78613C65.8932 5.89355 65.8281 6.03027 65.8281 6.19629C65.8281 6.35254 65.9014 6.47949 66.0479 6.57715C66.1976 6.67155 66.4482 6.75456 66.7998 6.82617C67.1514 6.89453 67.4476 6.97266 67.6885 7.06055C68.4339 7.33398 68.8066 7.80762 68.8066 8.48145C68.8066 8.96322 68.5999 9.35384 68.1865 9.65332C67.7731 9.94954 67.2393 10.0977 66.585 10.0977C66.1423 10.0977 65.7484 10.0195 65.4033 9.86328C65.0615 9.70378 64.793 9.4873 64.5977 9.21387C64.4023 8.93717 64.3047 8.63932 64.3047 8.32031H65.6426C65.6556 8.57096 65.7484 8.76302 65.9209 8.89648C66.0934 9.02995 66.3245 9.09668 66.6143 9.09668C66.8844 9.09668 67.0879 9.04622 67.2246 8.94531C67.3646 8.84115 67.4346 8.70605 67.4346 8.54004ZM71.6387 7.88086L71.1309 8.38867V10H69.7197V2.5H71.1309V6.65527L71.4043 6.30371L72.7568 4.7168H74.4512L72.542 6.91895L74.6172 10H72.9961L71.6387 7.88086ZM31.3213 18.1348C31.3213 17.8581 31.2236 17.6465 31.0283 17.5C30.833 17.3503 30.4814 17.194 29.9736 17.0312C29.4658 16.8652 29.0638 16.7025 28.7676 16.543C27.9603 16.1068 27.5566 15.5192 27.5566 14.7803C27.5566 14.3962 27.6641 14.0544 27.8789 13.7549C28.097 13.4521 28.4079 13.2161 28.8115 13.0469C29.2184 12.8776 29.6742 12.793 30.1787 12.793C30.6865 12.793 31.139 12.8857 31.5361 13.0713C31.9333 13.2536 32.2409 13.5124 32.459 13.8477C32.6803 14.1829 32.791 14.5638 32.791 14.9902H31.3262C31.3262 14.6647 31.2236 14.4124 31.0186 14.2334C30.8135 14.0511 30.5254 13.96 30.1543 13.96C29.7962 13.96 29.5179 14.0365 29.3193 14.1895C29.1208 14.3392 29.0215 14.5378 29.0215 14.7852C29.0215 15.0163 29.137 15.21 29.3682 15.3662C29.6025 15.5225 29.946 15.6689 30.3984 15.8057C31.2318 16.0563 31.8389 16.3672 32.2197 16.7383C32.6006 17.1094 32.791 17.5716 32.791 18.125C32.791 18.7402 32.5583 19.2236 32.0928 19.5752C31.6273 19.9235 31.0007 20.0977 30.2129 20.0977C29.666 20.0977 29.168 19.9984 28.7188 19.7998C28.2695 19.598 27.9261 19.3229 27.6885 18.9746C27.4541 18.6263 27.3369 18.2227 27.3369 17.7637H28.8066C28.8066 18.5482 29.2754 18.9404 30.2129 18.9404C30.5612 18.9404 30.833 18.8704 31.0283 18.7305C31.2236 18.5872 31.3213 18.3887 31.3213 18.1348ZM36.126 20.0977C35.3512 20.0977 34.7197 19.86 34.2314 19.3848C33.7464 18.9095 33.5039 18.2764 33.5039 17.4854V17.3486C33.5039 16.818 33.6064 16.3444 33.8115 15.9277C34.0166 15.5078 34.3063 15.1855 34.6807 14.9609C35.0583 14.7331 35.488 14.6191 35.9697 14.6191C36.6924 14.6191 37.2604 14.847 37.6738 15.3027C38.0905 15.7585 38.2988 16.4046 38.2988 17.2412V17.8174H34.9346C34.9801 18.1624 35.1169 18.4391 35.3447 18.6475C35.5758 18.8558 35.8672 18.96 36.2188 18.96C36.7624 18.96 37.1872 18.763 37.4932 18.3691L38.1865 19.1455C37.9749 19.445 37.6885 19.6794 37.3271 19.8486C36.9658 20.0146 36.5654 20.0977 36.126 20.0977ZM35.9648 15.7617C35.6849 15.7617 35.457 15.8561 35.2812 16.0449C35.1087 16.2337 34.998 16.5039 34.9492 16.8555H36.9121V16.7432C36.9056 16.4307 36.821 16.1898 36.6582 16.0205C36.4954 15.848 36.2643 15.7617 35.9648 15.7617ZM41.3018 18.96C41.5622 18.96 41.7738 18.8883 41.9365 18.7451C42.0993 18.6019 42.1839 18.4115 42.1904 18.1738H43.5137C43.5104 18.5319 43.4128 18.8607 43.2207 19.1602C43.0286 19.4564 42.765 19.6875 42.4297 19.8535C42.0977 20.0163 41.7298 20.0977 41.3262 20.0977C40.571 20.0977 39.9753 19.8584 39.5391 19.3799C39.1029 18.8981 38.8848 18.234 38.8848 17.3877V17.2949C38.8848 16.4811 39.1012 15.8317 39.5342 15.3467C39.9671 14.8617 40.5612 14.6191 41.3164 14.6191C41.9772 14.6191 42.5062 14.8079 42.9033 15.1855C43.3037 15.5599 43.5072 16.0596 43.5137 16.6846H42.1904C42.1839 16.4111 42.0993 16.1898 41.9365 16.0205C41.7738 15.848 41.5589 15.7617 41.292 15.7617C40.9632 15.7617 40.7142 15.8822 40.5449 16.123C40.3789 16.3607 40.2959 16.748 40.2959 17.2852V17.4316C40.2959 17.9753 40.3789 18.3659 40.5449 18.6035C40.7109 18.8411 40.9632 18.96 41.3018 18.96ZM47.4834 19.4629C47.1351 19.8861 46.6533 20.0977 46.0381 20.0977C45.4717 20.0977 45.0387 19.9349 44.7393 19.6094C44.443 19.2839 44.2917 18.807 44.2852 18.1787V14.7168H45.6963V18.1299C45.6963 18.68 45.9469 18.9551 46.4482 18.9551C46.9268 18.9551 47.2555 18.7891 47.4346 18.457V14.7168H48.8506V20H47.5225L47.4834 19.4629ZM52.8838 16.04C52.6917 16.014 52.5225 16.001 52.376 16.001C51.8421 16.001 51.4922 16.1816 51.3262 16.543V20H49.915V14.7168H51.248L51.2871 15.3467C51.5703 14.8617 51.9626 14.6191 52.4639 14.6191C52.6201 14.6191 52.7666 14.6403 52.9033 14.6826L52.8838 16.04ZM55.9014 20.0977C55.1266 20.0977 54.4951 19.86 54.0068 19.3848C53.5218 18.9095 53.2793 18.2764 53.2793 17.4854V17.3486C53.2793 16.818 53.3818 16.3444 53.5869 15.9277C53.792 15.5078 54.0817 15.1855 54.4561 14.9609C54.8337 14.7331 55.2633 14.6191 55.7451 14.6191C56.4678 14.6191 57.0358 14.847 57.4492 15.3027C57.8659 15.7585 58.0742 16.4046 58.0742 17.2412V17.8174H54.71C54.7555 18.1624 54.8923 18.4391 55.1201 18.6475C55.3512 18.8558 55.6426 18.96 55.9941 18.96C56.5378 18.96 56.9626 18.763 57.2686 18.3691L57.9619 19.1455C57.7503 19.445 57.4639 19.6794 57.1025 19.8486C56.7412 20.0146 56.3408 20.0977 55.9014 20.0977ZM55.7402 15.7617C55.4603 15.7617 55.2324 15.8561 55.0566 16.0449C54.8841 16.2337 54.7734 16.5039 54.7246 16.8555H56.6875V16.7432C56.681 16.4307 56.5964 16.1898 56.4336 16.0205C56.2708 15.848 56.0397 15.7617 55.7402 15.7617Z" fill="#A2A4AC"/>
  <path fill-rule="evenodd" clip-rule="evenodd" d="M0 2.65498L0 8.69867C0 14.9252 4.19995 20.1981 10 22C15.7999 20.1981 20 14.9252 20 8.69867L20 2.65498L10 0L0 2.65498Z" fill="#A2A4AC"/>
  <path fill-rule="evenodd" clip-rule="evenodd" d="M8.47027 11.6L7.38462 12.093L8.92308 12.5429L8.47027 11.6ZM11.2204 11.6L10.7692 12.5429L12.3077 12.093L11.2204 11.6ZM10.4442 13.8H9.24372L9.0357 13.9633L8.92308 15.0571L9.02705 14.9484H10.6609L10.7692 15.0571L10.6522 13.9633L10.4442 13.8ZM15.6234 9.86253L15.388 9.69497L15.7646 9.35535L15.4774 9.13192L15.8541 8.84816L15.6046 8.66202L16 6.76348L15.4068 5L11.5888 6.40985L8.41115 6.40985L4.59313 5L4 6.76348L4.40012 8.66202L4.1459 8.84816L4.52253 9.13192L4.23536 9.35535L4.612 9.69497L4.37656 9.86253L4.91795 10.4907L4.09886 13.0127L4.85682 15.5859L7.52607 14.86L8.04391 15.2788L9.09844 16H10.9015L11.9561 15.2788L12.4739 14.86L15.1432 15.5859L15.9058 13.0127L15.082 10.4907L15.6234 9.86253Z" fill="white"/>
</svg>
